X: 02086
T: MORLEY'S HORNPIPE
C: Bob McQuillen Jan'76
B: Bob's Note Book 1&2 #86
R: hornpipe, reel
Z: 2019 John Chambers <jc:trillian.mit.edu>
M: C
L: 1/8
K: G
D2 \
| G2G2 GDB,D | GABc d2B2 | c2A2 ABAG | FGAF DcBA |\
| G2G2 GDB,D | GABc d2B2 | cedc BAGF | G6 :|
|: d2 \
| g2g2 gdBd | cedc BGBd | g2g2 gdBd | egdB A2d2 |\
| g2g2 gdBd | cedc B2G2 | G2GA BGAG | D2G2 G2 :|
%%begintext align
%% To LINDA MORLEY of
%% New England College in
%% Henniker, N.H.
%%endtext

%%sep 1 1 500

%%sep 1 1 500

